resources/haticons/SVG/backup_table.svg

<!-- Generated by IcoMoon.io -->
<svg version="1.1" xmlns="http://www.w3.org/2000/svg" width="24" height="24" viewBox="0 0 24 24">
<title>backup_table</title>
<path d="M20.016 6v14.016h-14.016v1.969h14.016q0.797 0 1.383-0.586t0.586-1.383v-14.016h-1.969zM15.984 2.016h-12q-0.797 0-1.383 0.586t-0.586 1.383v12q0 0.844 0.586 1.43t1.383 0.586h12q0.844 0 1.43-0.586t0.586-1.43v-12q0-0.797-0.586-1.383t-1.43-0.586zM9 15.984h-5.016v-4.969h5.016v4.969zM15.984 15.984h-4.969v-4.969h4.969v4.969zM15.984 9h-12v-5.016h12v5.016z"></path>
</svg>

<svg xmlns="http://www.w3.org/2000/svg" width="24" height="24"><path d="M20.016 6v14.016H6v1.969h14.016q.797 0 1.383-.586t.586-1.383V6h-1.969zm-4.032-3.984h-12q-.797 0-1.383.586t-.586 1.383v12q0 .844.586 1.43t1.383.586h12q.844 0 1.43-.586t.586-1.43v-12q0-.797-.586-1.383t-1.43-.586zM9 15.984H3.984v-4.969H9v4.969zm6.984 0h-4.969v-4.969h4.969v4.969zm0-6.984h-12V3.984h12V9z"/></svg>
